resources/haticons/SVG/view_comfy.svg

<!-- Generated by IcoMoon.io -->
<svg version="1.1" xmlns="http://www.w3.org/2000/svg" width="24" height="24" viewBox="0 0 24 24">
<title>view_comfy</title>
<path d="M18 5.016h3.984v3.984h-3.984v-3.984zM18 18.984v-3.984h3.984v3.984h-3.984zM12.984 18.984v-3.984h4.031v3.984h-4.031zM8.016 18.984v-3.984h3.984v3.984h-3.984zM3 18.984v-3.984h3.984v3.984h-3.984zM18 14.016v-4.031h3.984v4.031h-3.984zM12.984 5.016h4.031v3.984h-4.031v-3.984zM8.016 9v-3.984h3.984v3.984h-3.984zM12.984 14.016v-4.031h4.031v4.031h-4.031zM8.016 14.016v-4.031h3.984v4.031h-3.984zM3 14.016v-4.031h3.984v4.031h-3.984zM3 9v-3.984h3.984v3.984h-3.984z"></path>
</svg>

<svg xmlns="http://www.w3.org/2000/svg" width="24" height="24"><path d="M18 5.016h3.984V9H18V5.016zm0 13.968V15h3.984v3.984H18zm-5.016 0V15h4.031v3.984h-4.031zm-4.968 0V15H12v3.984H8.016zm-5.016 0V15h3.984v3.984H3zm15-4.968V9.985h3.984v4.031H18zm-5.016-9h4.031V9h-4.031V5.016zM8.016 9V5.016H12V9H8.016zm4.968 5.016V9.985h4.031v4.031h-4.031zm-4.968 0V9.985H12v4.031H8.016zm-5.016 0V9.985h3.984v4.031H3zM3 9V5.016h3.984V9H3z"/></svg>
